X:8162
T:Singet dem Herren ein neues Lied
C:Heinrich Sch\"utz
O:Germany
N:1628
Z:Transcribed by Frank Nordberg - http://www.musicaviva.com
F:http://abc.musicaviva.com/tunes/schutz-heinrich/schutz-singet-dem-4h.abc
M:3/4
L:1/4
K:Dm
V:1
fff|e2e|d2e/d/|^c3|dfg|a2f|fe2|f3|ccc|g2g|f2g/f/|e3|dfg|a2d|ge2|Hd3|]
V:2
AA=B|c2A|B2G|A3|FBG|c2c|B2B|A3|AAA|c2c|c2=B|c3|ABG|c2B|BA2|HA3|]
V:3
FFF|G2E|F2D|E3|DDD|E2F|G2G|C3|FFF|G2E|F2D|G3|DDD|EFG|D2^C|HD3|]
V:4
DDD|C2C|B,2B,|A,3|B,B,B,|A,2A,|G,2G,|F,3|FFF|E2E|D2D|C3|B,B,B,|A,2G,/A,/|B,/G,/A,2|HD3|]
W:
W:
W:  From Musica Viva - http://www.musicaviva.com
W:  the Internet center for free sheet music downloads.

